lib/svgs/mute.svg

<svg xmlns="http://www.w3.org/2000/svg" viewBox="0 0 20 20">
    <path fill="#000" fill-rule="evenodd" d="M12.6893,15.4117 L5.3593,15.4117 C5.7943,14.7497 6.0223,13.9837 6.0223,13.1887 L6.0223,9.4177 C6.0223,9.2077 6.0473,9.0047 6.0823,8.8047 L5.0983,7.8207 C4.9253,8.3237 4.8223,8.8587 4.8223,9.4177 L4.8223,13.1887 C4.8233,13.7817 4.6383,14.3597 4.2943,14.8437 L3.8393,15.4837 C3.6843,15.7017 3.6643,15.9877 3.7863,16.2247 C3.9093,16.4627 4.1543,16.6117 4.4213,16.6117 L7.8233,16.6117 C8.1293,17.4207 8.9053,17.9997 9.8213,17.9997 C10.7383,17.9997 11.5143,17.4207 11.8203,16.6117 L13.8893,16.6117 L12.6893,15.4117 Z M16.4695,15.798 L15.1115,14.441 C14.9225,14.052 14.8205,13.625 14.8205,13.188 L14.8205,9.418 C14.8205,7.164 13.2995,5.268 11.2395,4.65 C11.4435,4.374 11.5675,4.036 11.5675,3.666 C11.5675,2.746 10.8215,2 9.9015,2 C8.9805,2 8.2345,2.746 8.2345,3.666 C8.2345,4.017 8.3445,4.342 8.5305,4.611 C7.7385,4.825 7.0245,5.223 6.4375,5.766 L4.0245,3.353 C3.7895,3.118 3.4095,3.118 3.1755,3.353 C2.9415,3.587 2.9415,3.967 3.1755,4.201 L15.6205,16.646 C15.7385,16.763 15.8915,16.822 16.0455,16.822 C16.1985,16.822 16.3525,16.763 16.4695,16.646 C16.7035,16.413 16.7035,16.032 16.4695,15.798 L16.4695,15.798 Z M7.2835,6.612 C7.9575,6.002 8.8425,5.619 9.8215,5.619 C11.9165,5.619 13.6205,7.323 13.6205,9.418 L13.6205,12.949 L7.2835,6.612 L7.2835,6.612 Z M9.4345,3.666 C9.4345,3.409 9.6445,3.2 9.9015,3.2 C10.1585,3.2 10.3675,3.409 10.3675,3.666 C10.3675,3.923 10.1585,4.132 9.9015,4.132 C9.6445,4.132 9.4345,3.923 9.4345,3.666 L9.4345,3.666 Z"/>
</svg>

<svg xmlns="http://www.w3.org/2000/svg" viewBox="0 0 20 20">
    <path fill="#000" fill-rule="evenodd" d="M12.69 15.412H5.36a4.029 4.029 0 0 0 .662-2.223V9.418c0-.21.025-.413.06-.613l-.984-.984a4.897 4.897 0 0 0-.276 1.597v3.77a2.848 2.848 0 0 1-.528 1.656l-.455.64a.715.715 0 0 0 .582 1.128h3.402a2.138 2.138 0 0 0 3.997 0h2.07m2.58-.814l-1.358-1.357a2.866 2.866 0 0 1-.292-1.253v-3.77a5 5 0 0 0-3.58-4.768 1.666 1.666 0 1 0-2.709-.039 4.993 4.993 0 0 0-2.093 1.155L4.024 3.353a.6.6 0 1 0-.85.848l12.446 12.445a.601.601 0 0 0 .848-.848M7.284 6.612a3.772 3.772 0 0 1 2.538-.993 3.803 3.803 0 0 1 3.8 3.799v3.531L7.282 6.612m2.151-2.946a.467.467 0 0 1 .934 0 .466.466 0 0 1-.934 0"/>
</svg>
